app/javascript/images/sargassum-watch-logo.svg

<svg height="400" viewBox="0 0 400 400" width="400" xmlns="http://www.w3.org/2000/svg" xmlns:xlink="http://www.w3.org/1999/xlink"><radialGradient id="a" cx="50%" cy="100%" r="100%"><stop offset="0" stop-color="#fc385b"/><stop offset=".372134692" stop-color="#ee884b"/><stop offset=".662006999" stop-color="#ffc65b"/><stop offset="1" stop-color="#1edd88"/></radialGradient><radialGradient id="b" cx="50%" cy="50%" gradientTransform="matrix(0 .764045 -.767755 0 .883877 .117978)" r="65.441177%"><stop offset="0" stop-color="#fff"/><stop offset=".673279494" stop-color="#fff"/><stop offset=".786363237" stop-color="#fff"/><stop offset=".839997367" stop-color="#f2f2f2"/><stop offset=".954946454" stop-color="#a8a8a8"/><stop offset="1" stop-color="#a2a2a2"/></radialGradient><linearGradient id="c"><stop offset="0" stop-color="#622f00"/><stop offset=".36842302" stop-color="#8e640b"/><stop offset="1" stop-color="#f0c000"/></linearGradient><linearGradient id="d" x1="56.987625%" x2="74.586323%" xlink:href="#c" y1="55.242873%" y2="92.505069%"/><radialGradient id="e" cx="50%" cy="50%" gradientTransform="matrix(.4780613 .86901094 -.86478004 .46569604 .693359 -.167353)" r="55.197889%"><stop offset="0" stop-color="#522b02" stop-opacity="0"/><stop offset=".915723765" stop-color="#522b02" stop-opacity="0"/><stop offset="1" stop-color="#522b02"/></radialGradient><linearGradient id="f" x1="56.99266%" x2="74.604038%" xlink:href="#c" y1="55.242873%" y2="92.505069%"/><linearGradient id="g"><stop offset="0" stop-color="#fff"/><stop offset=".62147785" stop-color="#fff"/><stop offset="1" stop-color="#fff" stop-opacity=".898492"/></linearGradient><radialGradient id="h" cx="50%" cy="50%" gradientTransform="matrix(0 1 -.95590645 0 .977953 0)" r="50%" xlink:href="#g"/><radialGradient id="i" cx="50%" cy="50%" gradientTransform="matrix(0 1 -1.0037016 0 1.001851 0)" r="50%" xlink:href="#g"/><g fill="none" fill-rule="evenodd"><rect fill="url(#a)" height="400" rx="50" width="400"/><g transform="matrix(1 0 0 -1 40 298.093426)"><g fill-rule="nonzero"><path d="m75.2941176 0c-41.5800692 0-75.2941176 44.129218-75.2941176 98.5467128 0 54.4273492 33.7140484 98.5467132 75.2941176 98.5467132 41.5800694 0 75.2941174-44.119364 75.2941174-98.5467132 0-54.4174948-33.714048-98.5467128-75.2941174-98.5467128z" fill="url(#b)"/><path d="m244.705882 0c-41.580069 0-75.294117 44.129218-75.294117 98.5467128 0 54.4273492 33.714048 98.5467132 75.294117 98.5467132 41.58007 0 75.294118-44.119364 75.294118-98.5467132 0-54.4174948-33.714048-98.5467128-75.294118-98.5467128z" fill="url(#b)"/><g fill="#1c2023" transform="translate(16.608997 46.505191)"><path d="m59.050519 29.5640138c0-16.3291903-13.2174745-29.5640138-29.5252595-29.5640138s-29.5252595 13.2348235-29.5252595 29.5640138c0 16.3291904 13.2174745 29.5640139 29.5252595 29.5640139s29.5252595-13.2348235 29.5252595-29.5640139"/><path d="m227.606594 29.5640138c0-16.3291903-13.227317-29.5640138-29.52526-29.5640138s-29.525259 13.2348235-29.525259 29.5640138c0 16.3291904 13.227316 29.5640139 29.525259 29.5640139s29.52526-13.2348235 29.52526-29.5640139"/></g></g><g transform="matrix(1 0 0 -1 9.965398 111.944638)"><ellipse cx="36.213764" cy="36.318339" rx="33.462899" ry="34.010381" stroke="url(#d)" stroke-width="10"/><ellipse cx="36.152249" cy="36.539792" rx="37.652249" ry="38.039792" stroke="url(#e)" stroke-width="3"/></g><g transform="matrix(1 0 0 -1 179.377163 112.498271)"><ellipse cx="36.224016" cy="36.318339" rx="33.473151" ry="34.010381" stroke="url(#f)" stroke-width="10"/><ellipse cx="36.152249" cy="36.539792" rx="37.652249" ry="38.039792" stroke="url(#e)" stroke-width="3"/></g><ellipse cx="184.359862" cy="15.50173" fill="url(#h)" rx="11.626298" ry="9.965398" transform="matrix(.69465837 .7193398 -.7193398 .69465837 81.838216 -49.268146)"/><ellipse cx="15.50173" cy="15.50173" fill="url(#i)" rx="11.072664" ry="9.965398" transform="matrix(.69465837 .7193398 -.7193398 .69465837 30.278799 72.198229)"/></g></g></svg>

<?xml version="1.0" encoding="UTF-8"?>
<svg width="400px" height="400px" viewBox="0 0 400 400" version="1.1" xmlns="http://www.w3.org/2000/svg" xmlns:xlink="http://www.w3.org/1999/xlink">
    <!-- Generator: Sketch 58 (84663) - https://sketch.com -->
    <title>LOGO</title>
    <desc>Created with Sketch.</desc>
    <defs>
        <radialGradient cx="50%" cy="100%" fx="50%" fy="100%" r="100%" id="radialGradient-1">
            <stop stop-color="#FC385B" offset="0%"></stop>
            <stop stop-color="#EE884B" offset="37.2134692%"></stop>
            <stop stop-color="#FFC65B" offset="66.2006999%"></stop>
            <stop stop-color="#1EDD88" offset="100%"></stop>
        </radialGradient>
        <radialGradient cx="50%" cy="50%" fx="50%" fy="50%" r="65.4411765%" gradientTransform="translate(0.500000,0.500000),scale(1.000000,0.764045),rotate(90.000000),scale(1.000000,0.767755),translate(-0.500000,-0.500000)" id="radialGradient-2">
            <stop stop-color="#FFFFFF" offset="0%"></stop>
            <stop stop-color="#FFFFFF" offset="67.3279494%"></stop>
            <stop stop-color="#FFFFFF" offset="78.6363237%"></stop>
            <stop stop-color="#F2F2F2" offset="83.9997367%"></stop>
            <stop stop-color="#A8A8A8" offset="95.4946454%"></stop>
            <stop stop-color="#A2A2A2" offset="100%"></stop>
        </radialGradient>
        <linearGradient x1="56.987625%" y1="55.2428733%" x2="74.5863229%" y2="92.5050692%" id="linearGradient-3">
            <stop stop-color="#622F00" offset="0%"></stop>
            <stop stop-color="#8E640B" offset="36.842302%"></stop>
            <stop stop-color="#F0C000" offset="100%"></stop>
        </linearGradient>
        <radialGradient cx="50%" cy="50%" fx="50%" fy="50%" r="55.1978889%" gradientTransform="translate(0.500000,0.500000),scale(1.000000,0.989394),rotate(61.441141),scale(1.000000,0.984577),translate(-0.500000,-0.500000)" id="radialGradient-4">
            <stop stop-color="#522B02" stop-opacity="0" offset="0%"></stop>
            <stop stop-color="#522B02" stop-opacity="0" offset="91.5723765%"></stop>
            <stop stop-color="#522B02" offset="100%"></stop>
        </radialGradient>
        <linearGradient x1="56.9926599%" y1="55.2428733%" x2="74.6040384%" y2="92.5050692%" id="linearGradient-5">
            <stop stop-color="#622F00" offset="0%"></stop>
            <stop stop-color="#8E640B" offset="36.842302%"></stop>
            <stop stop-color="#F0C000" offset="100%"></stop>
        </linearGradient>
        <radialGradient cx="50%" cy="50%" fx="50%" fy="50%" r="50%" gradientTransform="translate(0.500000,0.500000),scale(0.857143,1.000000),rotate(90.000000),scale(1.000000,1.115224),translate(-0.500000,-0.500000)" id="radialGradient-6">
            <stop stop-color="#FFFFFF" offset="0%"></stop>
            <stop stop-color="#FFFFFF" offset="62.147785%"></stop>
            <stop stop-color="#FFFFFF" stop-opacity="0.898492133" offset="100%"></stop>
        </radialGradient>
        <radialGradient cx="50%" cy="50%" fx="50%" fy="50%" r="50%" gradientTransform="translate(0.500000,0.500000),scale(0.900000,1.000000),rotate(90.000000),scale(1.000000,1.115224),translate(-0.500000,-0.500000)" id="radialGradient-7">
            <stop stop-color="#FFFFFF" offset="0%"></stop>
            <stop stop-color="#FFFFFF" offset="62.147785%"></stop>
            <stop stop-color="#FFFFFF" stop-opacity="0.898492133" offset="100%"></stop>
        </radialGradient>
    </defs>
    <g id="LOGO" stroke="none" stroke-width="1" fill="none" fill-rule="evenodd">
        <rect id="Rectangle" fill="url(#radialGradient-1)" x="0" y="0" width="400" height="400" rx="50"></rect>
        <g id="1f440" transform="translate(40.000000, 101.000000)">
            <g id="Group" transform="translate(160.000000, 98.546713) scale(-1, 1) rotate(-180.000000) translate(-160.000000, -98.546713) ">
                <path d="M75.2941176,-3.18323146e-12 C33.7140484,-3.18323146e-12 0,44.129218 0,98.5467128 C0,152.974062 33.7140484,197.093426 75.2941176,197.093426 C116.874187,197.093426 150.588235,152.974062 150.588235,98.5467128 C150.588235,44.129218 116.874187,-3.18323146e-12 75.2941176,-3.18323146e-12 Z" id="Path" fill="url(#radialGradient-2)" fill-rule="nonzero"></path>
                <path d="M244.705882,-3.18323146e-12 C203.125813,-3.18323146e-12 169.411765,44.129218 169.411765,98.5467128 C169.411765,152.974062 203.125813,197.093426 244.705882,197.093426 C286.285952,197.093426 320,152.974062 320,98.5467128 C320,44.129218 286.285952,-3.18323146e-12 244.705882,-3.18323146e-12 Z" id="Path" fill="url(#radialGradient-2)" fill-rule="nonzero"></path>
                <g id="Group-5" transform="translate(9.965398, 38.311419)">
                    <g id="Group" transform="translate(6.643599, 8.193772)" fill="#1C2023" fill-rule="nonzero">
                        <path d="M59.050519,29.5640138 C59.050519,13.2348235 45.8330445,-1.13686838e-13 29.5252595,-1.13686838e-13 C13.2174745,-1.13686838e-13 0,13.2348235 0,29.5640138 C0,45.8932042 13.2174745,59.1280277 29.5252595,59.1280277 C45.8330445,59.1280277 59.050519,45.8932042 59.050519,29.5640138" id="Path"></path>
                        <path d="M227.606594,29.5640138 C227.606594,13.2348235 214.379277,-3.58824082e-13 198.081334,-3.58824082e-13 C181.783391,-3.58824082e-13 168.556075,13.2348235 168.556075,29.5640138 C168.556075,45.8932042 181.783391,59.1280277 198.081334,59.1280277 C214.379277,59.1280277 227.606594,45.8932042 227.606594,29.5640138" id="Path"></path>
                    </g>
                    <g id="Group-4" transform="translate(36.539792, 37.093426) scale(1, -1) translate(-36.539792, -37.093426) translate(0.000000, 0.553633)">
                        <ellipse id="Oval" stroke="url(#linearGradient-3)" stroke-width="10" cx="36.2137639" cy="36.3183391" rx="33.4628988" ry="34.0103806"></ellipse>
                        <ellipse id="Oval-Copy-5" stroke="url(#radialGradient-4)" stroke-width="3" cx="36.1522491" cy="36.5397924" rx="37.6522491" ry="38.0397924"></ellipse>
                    </g>
                    <g id="Group-3" transform="translate(205.951557, 37.647059) scale(1, -1) translate(-205.951557, -37.647059) translate(169.411765, 1.107266)">
                        <ellipse id="Oval-Copy" stroke="url(#linearGradient-5)" stroke-width="10" cx="36.2240164" cy="36.3183391" rx="33.4731514" ry="34.0103806"></ellipse>
                        <ellipse id="Oval-Copy-5" stroke="url(#radialGradient-4)" stroke-width="3" cx="36.1522491" cy="36.5397924" rx="37.6522491" ry="38.0397924"></ellipse>
                    </g>
                    <g id="Group-2" transform="translate(4.429066, 40.304498)">
                        <ellipse id="Oval-Copy-2" fill="url(#radialGradient-6)" transform="translate(184.359862, 15.501730) rotate(46.000000) translate(-184.359862, -15.501730) " cx="184.359862" cy="15.5017301" rx="11.6262976" ry="9.96539792"></ellipse>
                        <ellipse id="Oval-Copy-3" fill="url(#radialGradient-7)" transform="translate(15.501730, 15.501730) rotate(46.000000) translate(-15.501730, -15.501730) " cx="15.5017301" cy="15.5017301" rx="11.0726644" ry="9.96539792"></ellipse>
                    </g>
                </g>
            </g>
        </g>
    </g>
</svg>
